src/lib/packages/icons/src/assets/filled/face-unamused.svg

<svg xmlns="http://www.w3.org/2000/svg" width="24" height="24" fill="none"><path fill="currentColor" d="M12 2C6.48 2 2 6.48 2 12s4.48 10 10 10 10-4.48 10-10S17.52 2 12 2Zm-5.75 8c0-.41.34-.75.75-.75h2.5c.72 0 1.25.74 1.25 1.75s-.53 1.75-1.25 1.75-1.25-.74-1.25-1.75c0-.09 0-.17.02-.25H7c-.41 0-.75-.34-.75-.75Zm9.33 6.45a.75.75 0 0 1-1.05.15c-1.48-1.12-3.63-1.11-5.1 0a.76.76 0 0 1-.45.15.75.75 0 0 1-.45-1.35c1.99-1.5 4.89-1.51 6.9 0 .33.25.4.72.15 1.05Zm.92-3.7c-.72 0-1.25-.74-1.25-1.75 0-.09 0-.17.02-.25H14c-.41 0-.75-.34-.75-.75s.34-.75.75-.75h2.5c.72 0 1.25.74 1.25 1.75s-.53 1.75-1.25 1.75Z"/></svg>

<svg width="24" height="24" viewBox="0 0 24 24" fill="none" xmlns="http://www.w3.org/2000/svg">
<path d="M12 2C6.48 2 2 6.48 2 12C2 17.52 6.48 22 12 22C17.52 22 22 17.52 22 12C22 6.48 17.52 2 12 2ZM6.25 10C6.25 9.59 6.59 9.25 7 9.25H9.5C10.22 9.25 10.75 9.99 10.75 11C10.75 12.01 10.22 12.75 9.5 12.75C8.78 12.75 8.25 12.01 8.25 11C8.25 10.91 8.24999 10.83 8.26999 10.75H7C6.59 10.75 6.25 10.41 6.25 10ZM15.58 16.45C15.33 16.78 14.86 16.85 14.53 16.6C13.05 15.48 10.9 15.49 9.42999 16.6C9.28999 16.7 9.14001 16.75 8.98001 16.75C8.75001 16.75 8.53 16.65 8.38 16.45C8.13 16.12 8.2 15.65 8.53 15.4C10.52 13.9 13.42 13.89 15.43 15.4C15.76 15.65 15.83 16.12 15.58 16.45ZM16.5 12.75C15.78 12.75 15.25 12.01 15.25 11C15.25 10.91 15.25 10.83 15.27 10.75H14C13.59 10.75 13.25 10.41 13.25 10C13.25 9.59 13.59 9.25 14 9.25H16.5C17.22 9.25 17.75 9.99 17.75 11C17.75 12.01 17.22 12.75 16.5 12.75Z" fill="currentColor"/>
</svg>
